design/Status/line_to_neutral.svg

<svg width="24" height="24" viewBox="0 0 24 24" xmlns="http://www.w3.org/2000/svg">
<path d="M1.19995 17V7H3.29995V15.2H7.39995V17H1.19995ZM8.39995 14.1V12.4H12.1V14.1H8.39995ZM22.7999 17H20.1L15.8 9.4H15.7L15.8 17H13.9V7H16.6L20.9 14.5L20.7999 7H22.7V17H22.7999Z" />
</svg>

<svg xmlns="http://www.w3.org/2000/svg" width="24" height="24" viewBox="0 0 24 24">
<path d="M1.2,17V7h2.1v8.2h4.1V17H1.2z M8.4,14.1v-1.7h3.7v1.7H8.4z M22.8,17h-2.7l-4.3-7.6h-0.1c0.1,1.3,0.1,2.3,0.1,2.9V17h-1.9V7
	h2.7l4.3,7.5h0c-0.1-1.3-0.1-2.2-0.1-2.8V7h1.9V17z"/>
</svg>
